; generated by PrusaSlicer 2.9.5 on 2026-06-25 at 14:19:48 UTC


;
;
; 

; external perimeters extrusion width = 0.45mm
; perimeters extrusion width = 0.45mm
; infill extrusion width = 0.45mm
; solid infill extrusion width = 0.45mm
; top infill extrusion width = 0.40mm
; support material extrusion width = 0.35mm
; first layer extrusion width = 0.42mm

; external perimeters extrusion width = 0.45mm
; perimeters extrusion width = 0.45mm
; infill extrusion width = 0.45mm
; solid infill extrusion width = 0.45mm
; top infill extrusion width = 0.40mm
; support material extrusion width = 0.35mm
; first layer extrusion width = 0.42mm

M73 P0 R28
M73 Q0 S28
M201 X1000 Y1000 Z200 E5000 ; sets maximum accelerations, mm/sec^2
M203 X200 Y200 Z12 E120 ; sets maximum feedrates, mm / sec
M204 S1250 T1250 ; sets acceleration (S) and retract acceleration (R), mm/sec^2
M205 X8.00 Y8.00 Z0.40 E4.50 ; sets the jerk limits, mm/sec
M205 S0 T0 ; sets the minimum extruding and travel feed rate, mm/sec

; printing object Cassette_Clip_Nasser_WIP-BodyBox id:1 copy 0
; stop printing object Cassette_Clip_Nasser_WIP-BodyBox id:1 copy 0
; printing object Cassette_Clip_Nasser_WIP-BodyBox id:0 copy 0
; stop printing object Cassette_Clip_Nasser_WIP-BodyBox id:0 copy 0

;TYPE:Custom
M862.3 P "MK3S" ; printer model check
M862.1 P0.4 ; nozzle diameter check
M115 U3.14.1 ; tell printer latest fw version
G90 ; use absolute coordinates
M83 ; extruder relative mode
M104 S240 ; set extruder temp
M140 S85 ; set bed temp
M190 S85 ; wait for bed temp
M109 S240 ; wait for extruder temp
G28 W ; home all without mesh bed level
G80 X87.3786 Y90.7474 W75.2428 H38.5053 ; mesh bed levelling

G1 Z0.2 F720
G1 Y-3 F1000 ; go outside print area
G92 E0
G1 X60 E9 F1000 ; intro line
G1 X100 E12.5 F1000 ; intro line

G92 E0
M221 S95

; Don't change E values below. Excessive value can damage the printer.

M907 E538 ; set extruder motor current
G21 ; set units to millimeters
G90 ; use absolute coordinates
M83 ; use relative distances for extrusion

M900 K0.08 ; Filament gcode LA 1.5
M900 K45 ; Filament gcode LA 1.0




M107
;LAYER_CHANGE
;Z:0.2
;HEIGHT:0.2
G1 E-1 F2100
G1 Z.4 F720
G1 X87.962 Y91.876 F10800
G1 Z.2 F720
G1 E1 F2100
M204 S800
;TYPE:Skirt/Brim
;WIDTH:0.42
G1 F1200
G1 X88.995 Y91.074 E.041
G1 X89.759 Y90.936 E.02434
G1 X160.244 Y90.936 E2.21001
G1 X161.493 Y91.327 E.04104
G1 X162.295 Y92.36 E.041
G1 X162.433 Y93.124 E.02434
G1 X162.429 Y126.876 E1.05827
G1 X162.038 Y128.124 E.04101
G1 X161.005 Y128.926 E.041
G1 X160.241 Y129.064 E.02434
G1 X89.756 Y129.064 E2.21001
G1 X88.507 Y128.673 E.04104
M73 P0 R27
G1 X87.705 Y127.64 E.041
G1 X87.567 Y126.876 E.02434
G1 X87.571 Y93.124 E1.05827
G1 X87.944 Y91.933 E.03913
M73 P1 R27
M73 Q1 S28
M204 S1000
;WIPE_START
G1 F8640
G1 X87.962 Y91.876 E-.0138
G1 X88.995 Y91.074 E-.30197
G1 X89.759 Y90.936 E-.17926
G1 X91.946 Y90.936 E-.50497
;WIPE_END
G1 Z.4 F720
; printing object Cassette_Clip_Nasser_WIP-BodyBox id:0 copy 0
G1 X137.17 Y117.52 F10800
G1 Z.2 F720
G1 E1 F2100
M204 S800
;TYPE:Support material
G1 F1200
G1 X93.144 Y117.52 E1.3804
G1 X92.863 Y117.801 E.01246
G1 X92.863 Y120.345 E.07977
G1 X92.97 Y120.887 E.01732
G1 X93.286 Y121.372 E.01815
G1 X97.455 Y125.494 E.18382
G1 X97.713 Y125.626 E.00909
G1 X98.222 Y125.729 E.01628
G1 X100.691 Y125.73 E.07741
G1 X102.087 Y126.876 E.05663
G1 X89.756 Y126.876 E.38663
G1 X89.756 Y114.067 E.40162
G1 X137.17 Y114.067 E1.48663
G1 X137.17 Y117.463 E.10648
M204 S1000
G1 X136.73 Y117.35 F10800
M204 S800
G1 F1200
G1 X136.73 Y114.407 E.09228
G1 X136.311 Y114.407 E.01314
G1 X136.311 Y117.181 E.08698
G1 X135.892 Y117.181 E.01314
G1 X135.892 Y114.407 E.08698
G1 X135.473 Y114.407 E.01314
G1 X135.473 Y117.181 E.08698
G1 X135.054 Y117.181 E.01314
G1 X135.054 Y114.407 E.08698
G1 X134.635 Y114.407 E.01314
G1 X134.635 Y117.181 E.08698
G1 X134.216 Y117.181 E.01314
G1 X134.216 Y114.407 E.08698
G1 X133.797 Y114.407 E.01314
G1 X133.797 Y117.181 E.08698
G1 X133.378 Y117.181 E.01314
G1 X133.378 Y114.407 E.08698
G1 X132.959 Y114.407 E.01314
G1 X132.959 Y117.181 E.08698
G1 X132.54 Y117.181 E.01314
G1 X132.54 Y114.407 E.08698
G1 X132.121 Y114.407 E.01314
G1 X132.121 Y117.181 E.08698
G1 X131.702 Y117.181 E.01314
G1 X131.702 Y114.407 E.08698
G1 X131.283 Y114.407 E.01314
G1 X131.283 Y117.181 E.08698
G1 X130.864 Y117.181 E.01314
G1 X130.864 Y114.407 E.08698
G1 X130.445 Y114.407 E.01314
G1 X130.445 Y117.181 E.08698
G1 X130.026 Y117.181 E.01314
G1 X130.026 Y114.407 E.08698
G1 X129.607 Y114.407 E.01314
G1 X129.607 Y117.181 E.08698
G1 X129.188 Y117.181 E.01314
G1 X129.188 Y114.407 E.08698
G1 X128.769 Y114.407 E.01314
G1 X128.769 Y117.181 E.08698
G1 X128.35 Y117.181 E.01314
G1 X128.35 Y114.407 E.08698
G1 X127.931 Y114.407 E.01314
G1 X127.931 Y117.181 E.08698
G1 X127.512 Y117.181 E.01314
G1 X127.512 Y114.407 E.08698
G1 X127.093 Y114.407 E.01314
G1 X127.093 Y117.181 E.08698
G1 X126.674 Y117.181 E.01314
G1 X126.674 Y114.407 E.08698
G1 X126.255 Y114.407 E.01314
G1 X126.255 Y117.181 E.08698
G1 X125.836 Y117.181 E.01314
G1 X125.836 Y114.407 E.08698
G1 X125.417 Y114.407 E.01314
G1 X125.417 Y117.181 E.08698
G1 X124.998 Y117.181 E.01314
G1 X124.998 Y114.407 E.08698
G1 X124.579 Y114.407 E.01314
G1 X124.579 Y117.181 E.08698
G1 X124.16 Y117.181 E.01314
G1 X124.16 Y114.407 E.08698
G1 X123.741 Y114.407 E.01314
G1 X123.741 Y117.181 E.08698
G1 X123.322 Y117.181 E.01314
M73 Q1 S27
G1 X123.322 Y114.407 E.08698
G1 X122.903 Y114.407 E.01314
G1 X122.903 Y117.181 E.08698
G1 X122.484 Y117.181 E.01314
G1 X122.484 Y114.407 E.08698
G1 X122.065 Y114.407 E.01314
G1 X122.065 Y117.181 E.08698
G1 X121.646 Y117.181 E.01314
G1 X121.646 Y114.407 E.08698
G1 X121.227 Y114.407 E.01314
G1 X121.227 Y117.181 E.08698
G1 X120.808 Y117.181 E.01314
G1 X120.808 Y114.407 E.08698
G1 X120.389 Y114.407 E.01314
G1 X120.389 Y117.181 E.08698
G1 X119.971 Y117.181 E.01311
G1 X119.971 Y114.407 E.08698
G1 X119.552 Y114.407 E.01314
G1 X119.552 Y117.181 E.08698
G1 X119.133 Y117.181 E.01314
G1 X119.133 Y114.407 E.08698
G1 X118.714 Y114.407 E.01314
G1 X118.714 Y117.181 E.08698
G1 X118.295 Y117.181 E.01314
G1 X118.295 Y114.407 E.08698
G1 X117.876 Y114.407 E.01314
M73 Q2 S27
G1 X117.876 Y117.181 E.08698
G1 X117.457 Y117.181 E.01314
M73 P2 R27
G1 X117.457 Y114.407 E.08698
G1 X117.038 Y114.407 E.01314
G1 X117.038 Y117.181 E.08698
G1 X116.619 Y117.181 E.01314
G1 X116.619 Y114.407 E.08698
G1 X116.2 Y114.407 E.01314
G1 X116.2 Y117.181 E.08698
G1 X115.781 Y117.181 E.01314
G1 X115.781 Y114.407 E.08698
G1 X115.362 Y114.407 E.01314
G1 X115.362 Y117.181 E.08698
G1 X114.943 Y117.181 E.01314
G1 X114.943 Y114.407 E.08698
G1 X114.524 Y114.407 E.01314
G1 X114.524 Y117.181 E.08698
G1 X114.105 Y117.181 E.01314
G1 X114.105 Y114.407 E.08698
G1 X113.686 Y114.407 E.01314
G1 X113.686 Y117.181 E.08698
G1 X113.267 Y117.181 E.01314
G1 X113.267 Y114.407 E.08698
G1 X112.848 Y114.407 E.01314
G1 X112.848 Y117.181 E.08698
G1 X112.429 Y117.181 E.01314
G1 X112.429 Y114.407 E.08698
G1 X112.01 Y114.407 E.01314
G1 X112.01 Y117.181 E.08698
G1 X111.591 Y117.181 E.01314
G1 X111.591 Y114.407 E.08698
G1 X111.172 Y114.407 E.01314
G1 X111.172 Y117.181 E.08698
G1 X110.753 Y117.181 E.01314
G1 X110.753 Y114.407 E.08698
G1 X110.334 Y114.407 E.01314
G1 X110.334 Y117.181 E.08698
G1 X109.915 Y117.181 E.01314
G1 X109.915 Y114.407 E.08698
G1 X109.496 Y114.407 E.01314
G1 X109.496 Y117.181 E.08698
G1 X109.077 Y117.181 E.01314
G1 X109.077 Y114.407 E.08698
G1 X108.658 Y114.407 E.01314
G1 X108.658 Y117.181 E.08698
G1 X108.239 Y117.181 E.01314
G1 X108.239 Y114.407 E.08698
G1 X107.82 Y114.407 E.01314
G1 X107.82 Y117.181 E.08698
G1 X107.401 Y117.181 E.01314
G1 X107.401 Y114.407 E.08698
G1 X106.982 Y114.407 E.01314
G1 X106.982 Y117.181 E.08698
G1 X106.563 Y117.181 E.01314
G1 X106.563 Y114.407 E.08698
G1 X106.144 Y114.407 E.01314
G1 X106.144 Y117.181 E.08698
G1 X105.725 Y117.181 E.01314
G1 X105.725 Y114.407 E.08698
G1 X105.306 Y114.407 E.01314
G1 X105.306 Y117.181 E.08698
G1 X104.887 Y117.181 E.01314
G1 X104.887 Y114.407 E.08698
G1 X104.468 Y114.407 E.01314
G1 X104.468 Y117.181 E.08698
G1 X104.049 Y117.181 E.01314
G1 X104.049 Y114.407 E.08698
G1 X103.63 Y114.407 E.01314
G1 X103.63 Y117.181 E.08698
G1 X103.211 Y117.181 E.01314
G1 X103.211 Y114.407 E.08698
G1 X102.792 Y114.407 E.01314
G1 X102.792 Y117.181 E.08698
G1 X102.373 Y117.181 E.01314
G1 X102.373 Y114.407 E.08698
G1 X101.954 Y114.407 E.01314
G1 X101.954 Y117.181 E.08698
G1 X101.536 Y117.181 E.01311
G1 X101.536 Y114.407 E.08698
G1 X101.117 Y114.407 E.01314
G1 X101.117 Y117.181 E.08698
G1 X100.698 Y117.181 E.01314
G1 X100.698 Y114.407 E.08698
G1 X100.279 Y114.407 E.01314
G1 X100.279 Y117.181 E.08698
G1 X99.86 Y117.181 E.01314
G1 X99.86 Y114.407 E.08698
G1 X99.441 Y114.407 E.01314
G1 X99.441 Y117.181 E.08698
G1 X99.022 Y117.181 E.01314
G1 X99.022 Y114.407 E.08698
G1 X98.603 Y114.407 E.01314
G1 X98.603 Y117.181 E.08698
G1 X98.184 Y117.181 E.01314
G1 X98.184 Y114.407 E.08698
G1 X97.765 Y114.407 E.01314
G1 X97.765 Y117.181 E.08698
G1 X97.346 Y117.181 E.01314
G1 X97.346 Y114.407 E.08698
G1 X96.927 Y114.407 E.01314
G1 X96.927 Y117.181 E.08698
G1 X96.508 Y117.181 E.01314
G1 X96.508 Y114.407 E.08698
G1 X96.089 Y114.407 E.01314
G1 X96.089 Y117.181 E.08698
G1 X95.67 Y117.181 E.01314
G1 X95.67 Y114.407 E.08698
G1 X95.251 Y114.407 E.01314
G1 X95.251 Y117.181 E.08698
G1 X94.832 Y117.181 E.01314
G1 X94.832 Y114.407 E.08698
G1 X94.413 Y114.407 E.01314
G1 X94.413 Y117.181 E.08698
G1 X93.994 Y117.181 E.01314
G1 X93.994 Y114.407 E.08698
G1 X93.575 Y114.407 E.01314
G1 X93.575 Y117.181 E.08698
G1 X93.156 Y117.181 E.01314
G1 X93.156 Y114.407 E.08698
G1 X92.737 Y114.407 E.01314
G1 X92.737 Y117.447 E.09532
G1 X92.524 Y117.661 E.00947
G1 X92.525 Y120.382 E.08532
G1 X92.737 Y121.181 E.02592
G1 X92.737 Y126.536 E.1679
G1 X93.156 Y126.536 E.01314
G1 X93.156 Y121.722 E.15094
G1 X93.575 Y122.141 E.01858
G1 X93.575 Y126.536 E.1378
G1 X93.994 Y126.536 E.01314
G1 X93.994 Y122.56 E.12466
G1 X94.413 Y122.979 E.01858
G1 X94.413 Y126.536 E.11153
G1 X94.832 Y126.536 E.01314
G1 X94.832 Y123.397 E.09842
G1 X95.251 Y123.816 E.01858
G1 X95.251 Y126.536 E.08528
G1 X95.67 Y126.536 E.01314
G1 X95.67 Y124.235 E.07215
G1 X96.089 Y124.654 E.01858
G1 X96.089 Y126.536 E.05901
G1 X96.508 Y126.536 E.01314
G1 X96.508 Y125.073 E.04587
G1 X96.927 Y125.492 E.01858
G1 X96.927 Y126.536 E.03273
G1 X97.346 Y126.536 E.01314
G1 X97.346 Y125.82 E.02245
G1 X97.765 Y125.997 E.01426
G1 X97.765 Y126.536 E.0169
G1 X98.184 Y126.536 E.01314
G1 X98.184 Y126.066 E.01474
G1 X98.603 Y126.069 E.01314
G1 X98.603 Y126.536 E.01464
G1 X99.022 Y126.536 E.01314
G1 X99.022 Y126.069 E.01464
G1 X99.441 Y126.069 E.01314
G1 X99.441 Y126.536 E.01464
G1 X99.86 Y126.536 E.01314
G1 X99.86 Y126.069 E.01464
G1 X100.279 Y126.069 E.01314
G1 X100.279 Y126.536 E.01464
G1 X100.698 Y126.536 E.01314
G1 X100.698 Y126.175 E.01132
G1 X101.117 Y126.518 E.01698
G1 X101.117 Y126.706 E.00589
M204 S1000
G1 X92.318 Y126.706 F10800
M204 S800
G1 F1200
G1 X92.318 Y114.407 E.38563
G1 X91.899 Y114.407 E.01314
G1 X91.899 Y126.536 E.3803
G1 X91.48 Y126.536 E.01314
G1 X91.48 Y114.407 E.3803
G1 X91.061 Y114.407 E.01314
G1 X91.061 Y126.536 E.3803
G1 X90.642 Y126.536 E.01314
G1 X90.642 Y114.407 E.3803
G1 X90.223 Y114.407 E.01314
M73 P3 R27
M73 Q3 S27
G1 X90.223 Y126.706 E.38563
M204 S1000
;WIPE_START
G1 F8640
G1 X90.223 Y122.375 E-1
;WIPE_END
G1 Z.4 F720
G1 X132.863 Y122.547 F10800
G1 Z.2 F720
G1 E1 F2100
M204 S800
G1 F1200
G1 X132.863 Y122.914 E.01151
G1 X132.94 Y123.093 E.00611
G1 X134.467 Y124.568 E.06657
G1 X116.823 Y124.568 E.55322
G1 X116.823 Y121.28 E.10309
G1 X132.863 Y121.28 E.50292
G1 X132.863 Y122.491 E.03797
M204 S1000
G1 X133.378 Y124.399 F10800
M204 S800
G1 F1200
G1 X133.378 Y123.988 E.01289
G1 X132.959 Y123.584 E.01825
G1 X132.959 Y124.229 E.02022
G1 X132.54 Y124.229 E.01314
G1 X132.524 Y121.619 E.08184
G1 X132.121 Y121.619 E.01264
G1 X132.121 Y124.229 E.08183
G1 X131.702 Y124.229 E.01314
G1 X131.702 Y121.619 E.08183
G1 X131.283 Y121.619 E.01314
G1 X131.283 Y124.229 E.08183
G1 X130.864 Y124.229 E.01314
G1 X130.864 Y121.619 E.08183
G1 X130.445 Y121.619 E.01314
G1 X130.445 Y124.229 E.08183
G1 X130.026 Y124.229 E.01314
G1 X130.026 Y121.619 E.08183
G1 X129.607 Y121.619 E.01314
G1 X129.607 Y124.229 E.08183
G1 X129.188 Y124.229 E.01314
G1 X129.188 Y121.619 E.08183
G1 X128.769 Y121.619 E.01314
G1 X128.769 Y124.229 E.08183
G1 X128.35 Y124.229 E.01314
G1 X128.35 Y121.619 E.08183
G1 X127.931 Y121.619 E.01314
G1 X127.931 Y124.229 E.08183
G1 X127.512 Y124.229 E.01314
G1 X127.512 Y121.619 E.08183
G1 X127.093 Y121.619 E.01314
G1 X127.093 Y124.229 E.08183
G1 X126.674 Y124.229 E.01314
G1 X126.674 Y121.619 E.08183
G1 X126.255 Y121.619 E.01314
G1 X126.255 Y124.229 E.08183
G1 X125.836 Y124.229 E.01314
G1 X125.836 Y121.619 E.08183
G1 X125.417 Y121.619 E.01314
G1 X125.417 Y124.229 E.08183
G1 X124.998 Y124.229 E.01314
G1 X124.998 Y121.619 E.08183
G1 X124.579 Y121.619 E.01314
G1 X124.579 Y124.229 E.08183
G1 X124.16 Y124.229 E.01314
G1 X124.16 Y121.619 E.08183
G1 X123.741 Y121.619 E.01314
G1 X123.741 Y124.229 E.08183
G1 X123.322 Y124.229 E.01314
G1 X123.322 Y121.619 E.08183
G1 X122.903 Y121.619 E.01314
G1 X122.903 Y124.229 E.08183
G1 X122.484 Y124.229 E.01314
G1 X122.484 Y121.619 E.08183
G1 X122.065 Y121.619 E.01314
G1 X122.065 Y124.229 E.08183
G1 X121.646 Y124.229 E.01314
G1 X121.646 Y121.619 E.08183
G1 X121.227 Y121.619 E.01314
G1 X121.227 Y124.229 E.08183
G1 X120.808 Y124.229 E.01314
G1 X120.808 Y121.619 E.08183
G1 X120.389 Y121.619 E.01314
G1 X120.389 Y124.229 E.08183
G1 X119.971 Y124.229 E.01311
G1 X119.971 Y121.619 E.08183
G1 X119.552 Y121.619 E.01314
G1 X119.552 Y124.229 E.08183
G1 X119.133 Y124.229 E.01314
G1 X119.133 Y121.619 E.08183
G1 X118.714 Y121.619 E.01314
G1 X118.714 Y124.229 E.08183
G1 X118.295 Y124.229 E.01314
G1 X118.295 Y121.619 E.08183
G1 X117.876 Y121.619 E.01314
G1 X117.876 Y124.229 E.08183
G1 X117.457 Y124.229 E.01314
G1 X117.457 Y121.45 E.08713
M204 S1000
;WIPE_START
G1 F8640
G1 X117.457 Y124.229 E-.64168
G1 X117.876 Y124.229 E-.09675
G1 X117.876 Y123.096 E-.26157
;WIPE_END
G1 Z.4 F720
G1 X160.241 Y126.876 F10800
G1 Z.2 F720
G1 E1 F2100
M204 S800
G1 F1200
G1 X152.578 Y126.876 E.24027
G1 X152.578 Y125.01 E.05851
G1 X154.922 Y125.01 E.07349
G1 X155.203 Y124.729 E.01246
G1 X155.203 Y124.04 E.0216
G1 X156.871 Y123.948 E.05238
G1 X157.133 Y123.671 E.01195
G1 X157.133 Y121.246 E.07603
G1 X156.871 Y120.969 E.01195
G1 X155.203 Y120.877 E.05238
G1 X155.203 Y117.801 E.09645
G1 X154.922 Y117.52 E.01246
G1 X153.328 Y117.52 E.04998
G1 X153.328 Y116.375 E.0359
G1 X160.241 Y116.375 E.21675
G1 X160.241 Y126.819 E.32746
M204 S1000
G1 X159.773 Y126.706 F10800
M204 S800
G1 F1200
G1 X159.773 Y116.714 E.31329
G1 X159.354 Y116.714 E.01314
G1 X159.354 Y126.536 E.30796
G1 X158.935 Y126.536 E.01314
G1 X158.935 Y116.714 E.30796
G1 X158.516 Y116.714 E.01314
G1 X158.516 Y126.536 E.30796
G1 X158.097 Y126.536 E.01314
G1 X158.097 Y116.714 E.30796
G1 X157.678 Y116.714 E.01314
G1 X157.678 Y126.536 E.30796
G1 X157.259 Y126.536 E.01314
G1 X157.259 Y124.031 E.07854
G1 X157.025 Y124.279 E.01069
G1 X156.84 Y124.29 E.00581
G1 X156.84 Y126.536 E.07042
G1 X156.422 Y126.536 E.01311
G1 X156.422 Y124.314 E.06967
G1 X156.003 Y124.337 E.01316
G1 X156.003 Y126.536 E.06895
G1 X155.584 Y126.536 E.01314
G1 X155.584 Y124.359 E.06826
G1 X155.543 Y124.869 E.01604
M73 P4 R27
M73 Q4 S27
G1 X155.165 Y125.247 E.01676
G1 X155.165 Y126.536 E.04042
G1 X154.746 Y126.536 E.01314
G1 X154.746 Y125.349 E.03722
G1 X154.327 Y125.349 E.01314
G1 X154.327 Y126.536 E.03722
G1 X153.908 Y126.536 E.01314
G1 X153.908 Y125.349 E.03722
G1 X153.489 Y125.349 E.01314
G1 X153.489 Y126.536 E.03722
G1 X153.07 Y126.536 E.01314
G1 X153.07 Y125.18 E.04252
M204 S1000
;WIPE_START
G1 F8640
G1 X153.07 Y126.536 E-.3131
G1 X153.489 Y126.536 E-.09675
G1 X153.489 Y125.349 E-.27408
G1 X153.908 Y125.349 E-.09675
G1 X153.908 Y126.299 E-.21932
;WIPE_END
G1 Z.4 F720
G1 X157.259 Y121.133 F10800
G1 Z.2 F720
G1 E1 F2100
M204 S800
G1 F1200
G1 X157.259 Y116.714 E.13855
G1 X156.84 Y116.714 E.01314
G1 X156.84 Y120.627 E.12269
G1 X156.422 Y120.603 E.01313
